X: 6728
T: Chalk Sunday
R: jig
M: 6/8
K: Gmajor
|:D|G2 G BAF|GBd g2 e|dBG AGE|ABA A2 D|
G2 G A2 A|Bcd g2 e|dBG A2 A|BGF G2:|
|:f|g2 g ged|e2 e gfe|dBG AGE|
[1 ABA A2 f|g2 g agf|egf g2 e|dBG A^GA|BGF G2:|
[2 ABA A2 F|G2 G A2 A|Bcd g2 e|dBG A2 A|BGF G2||

